backend/papyrus-web-graphics/src/main/resources/icons-override/full/obj16/ExtensionEnd.svg

<?xml version="1.0" encoding="UTF-8" standalone="no"?>
<svg
   width="18"
   height="16"
   viewBox="0 0 4.7624999 4.2333332"
   version="1.1"
   id="svg8"
   inkscape:version="1.3 (0e150ed, 2023-07-21)"
   sodipodi:docname="ExtensionEnd.svg"
   xml:space="preserve"
   xmlns:inkscape="http://www.inkscape.org/namespaces/inkscape"
   xmlns:sodipodi="http://sodipodi.sourceforge.net/DTD/sodipodi-0.dtd"
   xmlns="http://www.w3.org/2000/svg"
   xmlns:svg="http://www.w3.org/2000/svg"><defs
     id="defs1" /><sodipodi:namedview
     id="base"
     pagecolor="#ffffff"
     bordercolor="#666666"
     borderopacity="1.0"
     inkscape:pageopacity="0"
     inkscape:pageshadow="2"
     inkscape:zoom="11.776846"
     inkscape:cx="8.7459749"
     inkscape:cy="6.3684284"
     inkscape:document-units="mm"
     inkscape:current-layer="g909"
     inkscape:document-rotation="0"
     showgrid="false"
     inkscape:pagecheckerboard="false"
     inkscape:window-width="2560"
     inkscape:window-height="1387"
     inkscape:window-x="0"
     inkscape:window-y="25"
     inkscape:window-maximized="0"
     units="px"
     inkscape:showpageshadow="2"
     inkscape:deskcolor="#d1d1d1" /><g
     id="g1"><g
       id="g882"><g
         id="g841"
         transform="matrix(0.43123034,0.42978739,-0.4121751,0.44965687,1.9811981,-0.78917593)"><g
           id="g909"
           transform="matrix(0.03967789,8.735385e-4,-8.735385e-4,0.03967789,0.08123939,-0.1122175)"><path
             style="fill:none;stroke:#2d6296;stroke-width:9.96753;stroke-linecap:round;stroke-linejoin:miter;stroke-miterlimit:4;stroke-dasharray:none;stroke-opacity:1"
             d="M 103.18256,57.801367 35.321195,125.57811"
             id="path891"
             sodipodi:nodetypes="cc" /><g
             id="g902"><path
               id="path891-3-6-7"
               style="fill:#000000;fill-opacity:1;stroke:#2d6296;stroke-width:10;stroke-linecap:round;stroke-linejoin:round;stroke-miterlimit:4;stroke-dasharray:none;stroke-opacity:1"
               d="M 148.59335,12.390152 122.27272,76.894551 M 148.59338,12.390126 84.088955,38.710785 M 122.33232,76.83495 84.02935,38.770389" /></g><path
             style="fill:none;stroke:#2d6296;stroke-width:10.0504;stroke-linecap:round;stroke-linejoin:miter;stroke-miterlimit:4;stroke-dasharray:none;stroke-opacity:1"
             d="M 205.74096,58.839266 108.91561,-38.610165"
             id="path891-2"
             sodipodi:nodetypes="cc" /></g><path
           id="path891-3-6-7-6-7"
           style="fill:none;fill-opacity:1;stroke:#2d6296;stroke-width:0.342978;stroke-linecap:round;stroke-linejoin:round;stroke-miterlimit:4;stroke-dasharray:none;stroke-opacity:1"
           d="M 5.1569192,2.171506 4.5139872,1.3269199 5.0765549,1.1238764 M 5.0496211,2.499621 4.2239919,1.4295614 M 3.9210705,1.3509723 5.0826382,0.86056797 M 5.2672906,0.8875164 4.6253057,1.9422671 4.1603596,1.4428906 M 5.671354,0.8526577 4.8627722,2.2005985 M 4.9083268,2.5539796 3.8707632,1.5548825" /></g></g></g></svg>

<svg xmlns="http://www.w3.org/2000/svg" xml:space="preserve" width="16" height="16">
    <path d="M103.183 57.801 35.32 125.578" style="fill:none;stroke:#2d6296;stroke-width:9.96753;stroke-linecap:round;stroke-linejoin:miter;stroke-miterlimit:4;stroke-dasharray:none;stroke-opacity:1" transform="matrix(.0615 .06405 -.06142 .06412 6.2 -2.027)"/>
    <path d="m148.593 12.39-26.32 64.505m26.32-64.505L84.09 38.71m38.243 38.125L84.03 38.77" style="fill:#000;fill-opacity:1;stroke:#2d6296;stroke-width:10;stroke-linecap:round;stroke-linejoin:round;stroke-miterlimit:4;stroke-dasharray:none;stroke-opacity:1" transform="matrix(.0615 .06405 -.06142 .06412 6.2 -2.027)"/>
    <path d="m205.741 58.84-96.825-97.45" style="fill:none;stroke:#2d6296;stroke-width:10.0504;stroke-linecap:round;stroke-linejoin:miter;stroke-miterlimit:4;stroke-dasharray:none;stroke-opacity:1" transform="matrix(.0615 .06405 -.06142 .06412 6.2 -2.027)"/>
    <path d="m5.157 2.172-.643-.845.563-.203M5.05 2.5l-.826-1.07m-.303-.079 1.162-.49m.184.027-.642 1.054-.465-.5m1.511-.59-.808 1.349m.045.353-1.037-1" style="fill:none;fill-opacity:1;stroke:#2d6296;stroke-width:.342978;stroke-linecap:round;stroke-linejoin:round;stroke-miterlimit:4;stroke-dasharray:none;stroke-opacity:1" transform="matrix(1.58317 1.57787 -1.51321 1.65082 5.901 -1.97)"/>
</svg>
